packages/tiny-player/src/assets/icons/pause.svg

<?xml version="1.0" encoding="UTF-8"?>
<svg width="56px" height="56px" viewBox="0 0 56 56" version="1.1" xmlns="http://www.w3.org/2000/svg" xmlns:xlink="http://www.w3.org/1999/xlink">
    <g id="页面-1" stroke="none" stroke-width="1" fill="none" fill-rule="evenodd">
        <g id="切图集合" transform="translate(-175.000000, -155.000000)">
            <g id="icon_big_stop_normal" transform="translate(175.000000, 155.000000)">
                <rect id="矩形" fill="#D8D8D8" opacity="0" x="0" y="0" width="56" height="56"></rect>
                <g id="ICON/暂停">
                    <rect id="矩形" fill="#D8D8D8" fill-rule="nonzero" opacity="0" x="0" y="0" width="56" height="56"></rect>
                    <path d="M49.4983583,18.9166867 C48.3248712,16.136195 46.6431222,13.6434692 44.4979579,11.4983049 C42.3565308,9.35687782 39.8600678,7.6751288 37.0833133,6.49790449 C34.2056539,5.28330797 31.1486079,4.66666667 27.9981314,4.66666667 C24.8513921,4.66666667 21.7943461,5.28330797 18.9166867,6.49790449 C16.136195,7.6751288 13.6434692,9.35687782 11.5020421,11.4983049 C9.35687782,13.6434692 7.6751288,16.136195 6.50164171,18.9166867 C5.28330797,21.7943461 4.66666667,24.8513921 4.66666667,27.9981314 C4.66666667,31.1486079 5.28330797,34.2056539 6.50164171,37.0833133 C7.6751288,39.8600678 9.35687782,42.3565308 11.5020421,44.4979579 C13.6434692,46.639385 16.136195,48.3248712 18.9166867,49.4983583 C21.7943461,50.716692 24.8513921,51.3333333 27.9981314,51.3333333 C31.1486079,51.3333333 34.2056539,50.716692 37.0833133,49.4983583 C39.8600678,48.3248712 42.3565308,46.639385 44.4979579,44.4979579 C46.6431222,42.3565308 48.3248712,39.8600678 49.4983583,37.0833133 C50.716692,34.2056539 51.3333333,31.1486079 51.3333333,27.9981314 C51.3333333,24.8513921 50.716692,21.7943461 49.4983583,18.9166867" id="形状结合" stroke-opacity="0.6" stroke="#FFFFFF" fill="#1B2337" opacity="0.6"></path>
                    <g id="编组-2" transform="translate(21.000000, 18.666667)" fill="#FFFFFF">
                        <g id="编组-2备份">
                            <path d="M0.466666667,18.6666667 L0.466666667,0 L4.66666667,0 L4.66666667,18.6666667 L0.466666667,18.6666667 Z" id="形状结合备份"></path>
                        </g>
                        <g id="编组-2备份" transform="translate(9.333333, 0.000000)">
                            <path d="M4.2,0 L4.2,18.6666667 L0,18.6666667 L0,0 L4.2,0 Z" id="形状结合备份"></path>
                        </g>
                    </g>
                </g>
            </g>
        </g>
    </g>
</svg>

<svg width="56" height="56" xmlns="http://www.w3.org/2000/svg"><g fill="none" fill-rule="evenodd"><path d="M49.498 18.917a23.2 23.2 0 00-5-7.419 23.238 23.238 0 00-16.5-6.832 23.234 23.234 0 00-16.496 6.832 23.2 23.2 0 00-5 7.419 23.17 23.17 0 00-1.835 9.081c0 3.15.616 6.208 1.835 9.085a23.184 23.184 0 005 7.415 23.204 23.204 0 007.415 5 23.17 23.17 0 009.081 1.835c3.15 0 6.208-.616 9.085-1.835a23.245 23.245 0 007.415-5 23.184 23.184 0 005-7.415 23.175 23.175 0 001.835-9.085 23.17 23.17 0 00-1.835-9.081" stroke-opacity=".6" stroke="#FFF" fill="#1B2337" opacity=".6"/><path d="M21.467 37.333V18.667h4.2v18.666h-4.2zm13.066-18.666v18.666h-4.2V18.667h4.2z" fill="#FFF"/></g></svg>
